src/core/app-switcher/app-avatar/icons/reapit-proposals.svg

<svg width="40" height="40" viewBox="0 0 40 40" fill="none" xmlns="http://www.w3.org/2000/svg">
<path d="M0 8C0 3.58172 3.58172 0 8 0H32C36.4183 0 40 3.58172 40 8V32C40 36.4183 36.4183 40 32 40H8C3.58172 40 0 36.4183 0 32V8Z" fill="#ECF3FF"/>
<path d="M16.037 11.6481C14.255 10.1176 11.8381 9.13276 9.1665 9.01983V26.198C12.1231 26.3116 14.7987 27.3962 16.7671 29.0869C17.7355 29.9188 18.5333 30.8978 19.1098 31.9805V17.9933C19.1098 15.5233 17.9325 13.2758 16.037 11.6481Z" fill="#4E56EA"/>
<path d="M30.8332 9.01929C28.1615 9.13288 25.744 10.1177 23.9627 11.6476C22.0672 13.2759 20.8899 15.5221 20.8899 17.9921V31.9793C21.4664 30.8966 22.2641 29.9176 23.2326 29.0857C25.201 27.395 27.8766 26.3104 30.8332 26.1968V9.01929Z" fill="#4E56EA"/>
</svg>

<svg xmlns="http://www.w3.org/2000/svg" width="40" height="40" fill="none" viewBox="0 0 40 40">
  <path fill="#ECF3FF" d="M0 8a8 8 0 0 1 8-8h24a8 8 0 0 1 8 8v24a8 8 0 0 1-8 8H8a8 8 0 0 1-8-8V8Z"/>
  <path fill="#4E56EA" d="M16.037 11.648c-1.782-1.53-4.199-2.515-6.87-2.628v17.178c2.956.114 5.632 1.198 7.6 2.889.968.832 1.766 1.81 2.343 2.893V17.993c0-2.47-1.177-4.717-3.073-6.345ZM30.833 9.02c-2.671.113-5.089 1.098-6.87 2.628-1.896 1.628-3.073 3.874-3.073 6.344V31.98a10.076 10.076 0 0 1 2.343-2.893c1.968-1.691 4.644-2.776 7.6-2.89V9.02Z"/>
</svg>
